X: 181
T: The Little Black Rose
N:"Slow" "No. 3."
B:O'Neill's 181
Z:Transcribed by henrik.norbeck@mailbox.swipnet.se
M:3/4
L:1/8
K:Gm
{A}(G>F)|D2 D2 {A}(G>F)|D2 D2 (G>A)|">"B4 A2|">"G4 (G>A)|
">"B2- B(dcB)|">"A2- A(cBA)|">"G4 G2|G4||
(D>=E)|">"F2- F(.G.A.B)|c2- c>d (c/B/A/G/)|F2 D=E TE2|F2- (D.A.c)|
{Bc}B2- B(.A.G.^F)|(.G.A.B.c) A>G|G4 G2|G4 (D=E)|
F2- F(.G.A.B)|c2 c>d (c/B/A/G/)|F2 D=E TE2|F2- FD.A.c|
{Bc}B2- B(AG^F)|(.G.A.B.c) (A>G)|">"G4 G2|G4||


